img/tecnologias/javascript.svg

<svg width="81" height="81" viewBox="0 0 81 81" fill="none" xmlns="http://www.w3.org/2000/svg">
<path d="M24.9017 15H55.1957V45.294H24.9017V15ZM32.8623 40.3123C33.5355 41.7429 34.8651 42.921 37.1371 42.921C39.6616 42.921 41.3951 41.5746 41.3951 38.6293V28.9016H38.534V38.562C38.534 40.0094 37.945 40.3796 37.0193 40.3796C36.0432 40.3796 35.6393 39.7064 35.1849 38.9154L32.8623 40.3123ZM42.9267 40.0094C43.7681 41.6587 45.468 42.921 48.1271 42.921C50.8199 42.921 52.8395 41.5241 52.8395 38.9491C52.8395 36.5761 51.4763 35.5158 49.0528 34.4723L48.3459 34.1694C47.1173 33.6476 46.5956 33.2942 46.5956 32.4527C46.5956 31.7627 47.1173 31.2241 47.9588 31.2241C48.7667 31.2241 49.3052 31.5775 49.7933 32.4527L51.998 30.9885C51.0724 29.3728 49.7596 28.7501 47.9588 28.7501C45.4175 28.7501 43.785 30.3658 43.785 32.5032C43.785 34.8257 45.1482 35.9197 47.2015 36.7948L47.9083 37.0978C49.2211 37.67 49.9952 38.0234 49.9952 38.9996C49.9952 39.8074 49.2379 40.3965 48.0598 40.3965C46.6629 40.3965 45.8551 39.6728 45.2492 38.663L42.9267 40.0094Z" fill="#081546"/>
<path d="M9.98093 60.2568C9.98093 61.2456 9.76281 61.9872 9.32658 62.4816C8.90004 62.976 8.24569 63.3637 7.36353 63.6449L7 62.6415C7.44593 62.467 7.78037 62.278 8.00334 62.0744C8.2263 61.8709 8.38141 61.6237 8.46865 61.3328C8.5559 61.042 8.59952 60.6639 8.59952 60.1986V51.6339H9.98093V60.2568Z" fill="#404040"/>
<path d="M17.9013 59.8642C17.9013 60.1744 17.9546 60.4071 18.0612 60.5622C18.1679 60.7076 18.3278 60.8191 18.5411 60.8966L18.2357 61.8272C17.8383 61.7788 17.5184 61.6673 17.276 61.4928C17.0337 61.3183 16.8543 61.0469 16.738 60.6785C16.2242 61.4443 15.4632 61.8272 14.455 61.8272C13.6989 61.8272 13.1027 61.614 12.6665 61.1874C12.2303 60.7609 12.0121 60.2035 12.0121 59.5152C12.0121 58.7009 12.303 58.0756 12.8846 57.6394C13.4759 57.2032 14.3096 56.985 15.3857 56.985H16.5635V56.4179C16.5635 55.8751 16.4326 55.4873 16.1709 55.2547C15.9092 55.022 15.5069 54.9057 14.964 54.9057C14.4017 54.9057 13.7135 55.0414 12.8991 55.3128L12.5647 54.3386C13.5147 53.9896 14.3969 53.8151 15.2112 53.8151C16.1127 53.8151 16.7865 54.038 17.2324 54.484C17.6783 54.9202 17.9013 55.5455 17.9013 56.3598V59.8642ZM14.7604 60.8239C15.5262 60.8239 16.1273 60.4264 16.5635 59.6315V57.8721H15.5602C14.1448 57.8721 13.4372 58.3955 13.4372 59.4425C13.4372 59.8981 13.5487 60.2423 13.7716 60.4749C13.9946 60.7076 14.3242 60.8239 14.7604 60.8239Z" fill="#404040"/>
<path d="M26.0632 53.9896L23.4603 61.6527H21.8463L19.1998 53.9896H20.6539L22.6606 60.4604L24.6527 53.9896H26.0632Z" fill="#404040"/>
<path d="M32.5276 59.8642C32.5276 60.1744 32.5809 60.4071 32.6876 60.5622C32.7942 60.7076 32.9541 60.8191 33.1674 60.8966L32.8621 61.8272C32.4646 61.7788 32.1447 61.6673 31.9023 61.4928C31.66 61.3183 31.4806 61.0469 31.3643 60.6785C30.8505 61.4443 30.0895 61.8272 29.0814 61.8272C28.3252 61.8272 27.729 61.614 27.2928 61.1874C26.8566 60.7609 26.6385 60.2035 26.6385 59.5152C26.6385 58.7009 26.9293 58.0756 27.5109 57.6394C28.1023 57.2032 28.936 56.985 30.012 56.985H31.1898V56.4179C31.1898 55.8751 31.059 55.4873 30.7972 55.2547C30.5355 55.022 30.1332 54.9057 29.5903 54.9057C29.028 54.9057 28.3398 55.0414 27.5255 55.3128L27.191 54.3386C28.141 53.9896 29.0232 53.8151 29.8375 53.8151C30.7391 53.8151 31.4128 54.038 31.8587 54.484C32.3046 54.9202 32.5276 55.5455 32.5276 56.3598V59.8642ZM29.3867 60.8239C30.1526 60.8239 30.7536 60.4264 31.1898 59.6315V57.8721H30.1865C28.7712 57.8721 28.0635 58.3955 28.0635 59.4425C28.0635 59.8981 28.175 60.2423 28.3979 60.4749C28.6209 60.7076 28.9505 60.8239 29.3867 60.8239Z" fill="#404040"/>
<path d="M37.8198 51.4594C38.4887 51.4594 39.0606 51.5564 39.5356 51.7502C40.0106 51.9344 40.4711 52.2253 40.917 52.6227L40.1609 53.4661C39.7828 53.1656 39.4096 52.9475 39.0412 52.8117C38.6826 52.6663 38.2948 52.5936 37.8779 52.5936C37.3545 52.5936 36.9231 52.7148 36.5838 52.9572C36.2445 53.1995 36.0748 53.5533 36.0748 54.0187C36.0748 54.3095 36.133 54.5567 36.2493 54.7603C36.3657 54.9541 36.5789 55.1335 36.8891 55.2983C37.2091 55.4631 37.6695 55.6376 38.2706 55.8218C38.9007 56.0156 39.4241 56.2241 39.841 56.447C40.2578 56.67 40.5923 56.9802 40.8443 57.3777C41.1061 57.7654 41.2369 58.2598 41.2369 58.8608C41.2369 59.4425 41.0915 59.9563 40.8007 60.4022C40.5196 60.8481 40.1076 61.1971 39.5647 61.4492C39.0315 61.7012 38.3966 61.8272 37.6598 61.8272C36.2736 61.8272 35.1394 61.3958 34.2572 60.5331L35.0133 59.6897C35.4205 60.0193 35.8325 60.2713 36.2493 60.4458C36.6662 60.6106 37.1315 60.693 37.6453 60.693C38.2657 60.693 38.7795 60.5428 39.1866 60.2423C39.5938 59.932 39.7974 59.4861 39.7974 58.9045C39.7974 58.5749 39.7344 58.3034 39.6083 58.0902C39.4823 57.8672 39.2642 57.6685 38.954 57.494C38.6535 57.3195 38.2124 57.145 37.6307 56.9705C36.6032 56.6603 35.8519 56.2871 35.3769 55.8508C34.9019 55.4146 34.6644 54.8233 34.6644 54.0768C34.6644 53.5727 34.7952 53.122 35.057 52.7245C35.3284 52.327 35.7016 52.0168 36.1766 51.7939C36.6613 51.5709 37.2091 51.4594 37.8198 51.4594Z" fill="#404040"/>
<path d="M45.9907 53.8151C46.4464 53.8151 46.8632 53.8829 47.2413 54.0187C47.6194 54.1447 47.9829 54.3531 48.3319 54.6439L47.6921 55.4873C47.4206 55.2934 47.154 55.1529 46.8923 55.0656C46.6403 54.9687 46.3591 54.9202 46.0489 54.9202C45.4285 54.9202 44.9438 55.1674 44.5948 55.6618C44.2555 56.1562 44.0859 56.8881 44.0859 57.8575C44.0859 58.8269 44.2555 59.5443 44.5948 60.0096C44.9341 60.4652 45.4188 60.693 46.0489 60.693C46.3494 60.693 46.6257 60.6494 46.8778 60.5622C47.1298 60.4652 47.4109 60.315 47.7211 60.1114L48.3319 60.9839C47.6339 61.5461 46.8535 61.8272 45.9907 61.8272C44.9535 61.8272 44.1343 61.4782 43.5333 60.7803C42.942 60.0823 42.6463 59.1177 42.6463 57.8866C42.6463 57.0723 42.782 56.3598 43.0534 55.7491C43.3249 55.1383 43.7078 54.6633 44.2022 54.324C44.7063 53.9847 45.3025 53.8151 45.9907 53.8151Z" fill="#404040"/>
<path d="M53.4727 53.8151C53.7442 53.8151 53.9962 53.8442 54.2289 53.9023L53.9817 55.211C53.749 55.1529 53.526 55.1238 53.3128 55.1238C52.8378 55.1238 52.4548 55.2983 52.164 55.6473C51.8732 55.9962 51.6454 56.5391 51.4806 57.2759V61.6527H50.1428V53.9896H51.2916L51.4224 55.5455C51.626 54.9735 51.9023 54.5421 52.2513 54.2513C52.6003 53.9605 53.0074 53.8151 53.4727 53.8151Z" fill="#404040"/>
<path d="M57.0897 53.9896V61.6527H55.7519V53.9896H57.0897ZM56.4063 50.3107C56.6874 50.3107 56.9152 50.3979 57.0897 50.5724C57.2642 50.7469 57.3514 50.965 57.3514 51.2268C57.3514 51.4885 57.2642 51.7066 57.0897 51.8811C56.9152 52.0459 56.6874 52.1283 56.4063 52.1283C56.1348 52.1283 55.9119 52.0459 55.7374 51.8811C55.5629 51.7066 55.4756 51.4885 55.4756 51.2268C55.4756 50.965 55.5629 50.7469 55.7374 50.5724C55.9119 50.3979 56.1348 50.3107 56.4063 50.3107Z" fill="#404040"/>
<path d="M63.3748 53.8151C64.3539 53.8151 65.0712 54.1641 65.5268 54.862C65.9825 55.56 66.2103 56.544 66.2103 57.8139C66.2103 59.016 65.9485 59.9854 65.4251 60.7221C64.9016 61.4589 64.16 61.8272 63.2003 61.8272C62.3472 61.8272 61.6783 61.5364 61.1936 60.9548V64.59L59.8558 64.75V53.9896H61.0046L61.1064 55.022C61.3875 54.6342 61.7268 54.3386 62.1242 54.135C62.5217 53.9217 62.9385 53.8151 63.3748 53.8151ZM62.8804 60.7367C64.1406 60.7367 64.7707 59.7624 64.7707 57.8139C64.7707 55.8557 64.1939 54.8766 63.0403 54.8766C62.6622 54.8766 62.3181 54.9881 62.0079 55.211C61.6977 55.434 61.4263 55.72 61.1936 56.069V59.806C61.3875 60.1065 61.6298 60.3392 61.9207 60.504C62.2115 60.6591 62.5314 60.7367 62.8804 60.7367Z" fill="#404040"/>
<path d="M72.3575 61.3038C71.8534 61.6527 71.2815 61.8272 70.6417 61.8272C69.9922 61.8272 69.4832 61.643 69.1149 61.2747C68.7562 60.8966 68.5768 60.3537 68.5768 59.6461V55.022H67.2391V53.9896H68.5768V52.2592L69.9146 52.0992V53.9896H71.7323L71.5869 55.022H69.9146V59.5879C69.9146 59.9854 69.9825 60.2762 70.1182 60.4604C70.2636 60.6349 70.5011 60.7221 70.8307 60.7221C71.1312 60.7221 71.4705 60.6203 71.8486 60.4167L72.3575 61.3038Z" fill="#404040"/>
</svg>

<svg width="81" height="81" fill="none" xmlns="http://www.w3.org/2000/svg"><path d="M24.902 15h30.294v30.294H24.902V15Zm7.96 25.312c.673 1.43 2.003 2.609 4.275 2.609 2.525 0 4.258-1.346 4.258-4.292v-9.727h-2.861v9.66c0 1.447-.589 1.818-1.515 1.818-.976 0-1.38-.674-1.834-1.465l-2.323 1.397Zm10.065-.303c.841 1.65 2.541 2.912 5.2 2.912 2.693 0 4.712-1.397 4.712-3.972 0-2.373-1.363-3.433-3.786-4.477l-.707-.303c-1.229-.521-1.75-.875-1.75-1.716 0-.69.521-1.229 1.363-1.229.808 0 1.346.354 1.834 1.229l2.205-1.465c-.926-1.615-2.238-2.238-4.04-2.238-2.54 0-4.173 1.616-4.173 3.753 0 2.323 1.363 3.417 3.417 4.292l.706.303c1.313.572 2.087.925 2.087 1.902 0 .807-.757 1.397-1.935 1.397-1.397 0-2.205-.724-2.81-1.734l-2.323 1.346Z" fill="#081546"/><path d="M9.98 60.257c0 .989-.217 1.73-.653 2.225-.427.494-1.081.882-1.963 1.163L7 62.64c.446-.174.78-.363 1.003-.567.223-.203.378-.45.466-.741.087-.291.13-.67.13-1.134v-8.565h1.382v8.623ZM17.901 59.864c0 .31.054.543.16.698a.996.996 0 0 0 .48.335l-.305.93c-.398-.048-.718-.16-.96-.334-.242-.175-.422-.446-.538-.815-.514.766-1.275 1.15-2.283 1.15-.756 0-1.352-.214-1.789-.64-.436-.427-.654-.985-.654-1.673 0-.814.291-1.44.873-1.876.59-.436 1.425-.654 2.5-.654h1.179v-.567c0-.543-.131-.93-.393-1.163-.262-.233-.664-.35-1.207-.35-.562 0-1.25.136-2.065.408l-.334-.974c.95-.35 1.832-.524 2.646-.524.902 0 1.575.223 2.021.669.446.436.67 1.061.67 1.876v3.504Zm-3.14.96c.765 0 1.366-.398 1.803-1.192v-1.76H15.56c-1.415 0-2.123.523-2.123 1.57 0 .456.112.8.335 1.033.223.233.552.349.988.349ZM26.063 53.99l-2.603 7.663h-1.614L19.2 53.99h1.454l2.007 6.47 1.992-6.47h1.41ZM32.528 59.864c0 .31.053.543.16.698a.995.995 0 0 0 .48.335l-.306.93c-.397-.048-.717-.16-.96-.334-.242-.175-.421-.446-.538-.815-.514.766-1.274 1.15-2.283 1.15-.756 0-1.352-.214-1.788-.64-.436-.427-.654-.985-.654-1.673 0-.814.29-1.44.872-1.876.591-.436 1.425-.654 2.501-.654h1.178v-.567c0-.543-.131-.93-.393-1.163-.262-.233-.664-.35-1.207-.35-.562 0-1.25.136-2.064.408l-.335-.974c.95-.35 1.832-.524 2.646-.524.902 0 1.576.223 2.022.669.446.436.669 1.061.669 1.876v3.504Zm-3.141.96c.766 0 1.367-.398 1.803-1.192v-1.76h-1.004c-1.415 0-2.122.523-2.122 1.57 0 .456.111.8.334 1.033.223.233.553.349.989.349ZM37.82 51.46c.669 0 1.24.096 1.716.29.475.184.935.475 1.381.873l-.756.843a4.098 4.098 0 0 0-1.12-.654 3.067 3.067 0 0 0-1.163-.218c-.523 0-.955.12-1.294.363-.34.242-.51.596-.51 1.062 0 .29.059.538.175.741.117.194.33.373.64.538.32.165.78.34 1.382.524.63.194 1.153.402 1.57.625.417.223.751.533 1.003.93.262.388.393.883.393 1.484 0 .582-.145 1.095-.436 1.541-.281.446-.693.795-1.236 1.047-.533.252-1.168.378-1.905.378-1.386 0-2.52-.431-3.403-1.294l.756-.843c.407.33.82.581 1.236.756.417.165.883.247 1.396.247.62 0 1.134-.15 1.542-.45.407-.311.61-.757.61-1.339 0-.33-.063-.6-.189-.814-.126-.223-.344-.422-.654-.596-.3-.175-.742-.349-1.323-.523-1.028-.31-1.78-.684-2.254-1.12-.475-.436-.713-1.028-.713-1.774 0-.504.131-.955.393-1.352a2.72 2.72 0 0 1 1.12-.931c.484-.223 1.032-.335 1.643-.335ZM45.99 53.815c.456 0 .873.068 1.251.204.378.126.742.334 1.09.625l-.639.843a3.047 3.047 0 0 0-.8-.421 2.334 2.334 0 0 0-.843-.146c-.62 0-1.105.247-1.454.742-.34.494-.51 1.226-.51 2.196 0 .969.17 1.686.51 2.152.34.455.824.683 1.454.683.3 0 .577-.044.829-.13.252-.098.533-.248.843-.452l.61.873c-.697.562-1.478.843-2.34.843-1.038 0-1.857-.349-2.458-1.047-.591-.698-.887-1.662-.887-2.893 0-.815.136-1.527.407-2.138.272-.61.655-1.086 1.15-1.425.503-.34 1.1-.509 1.788-.509ZM53.473 53.815c.271 0 .523.03.756.087l-.247 1.309a2.761 2.761 0 0 0-.67-.087c-.474 0-.857.174-1.148.523-.29.35-.519.892-.683 1.629v4.377h-1.338V53.99h1.149l.13 1.555c.204-.572.48-1.003.83-1.294a1.85 1.85 0 0 1 1.22-.436ZM57.09 53.99v7.663h-1.338V53.99h1.338Zm-.684-3.68c.281 0 .51.088.684.262a.888.888 0 0 1 .261.655c0 .262-.087.48-.261.654-.175.165-.403.247-.684.247a.935.935 0 0 1-.669-.247.888.888 0 0 1-.261-.654c0-.262.087-.48.261-.655a.906.906 0 0 1 .67-.261ZM63.375 53.815c.979 0 1.696.35 2.152 1.047.456.698.683 1.682.683 2.952 0 1.202-.261 2.171-.785 2.908-.523.737-1.265 1.105-2.225 1.105-.853 0-1.522-.29-2.006-.872v3.635l-1.338.16V53.99h1.149l.101 1.032c.282-.388.62-.683 1.018-.887.398-.213.814-.32 1.25-.32Zm-.495 6.922c1.26 0 1.89-.975 1.89-2.923 0-1.958-.576-2.937-1.73-2.937-.378 0-.722.111-1.032.334-.31.223-.582.509-.814.858v3.737c.194.3.436.533.727.698.29.155.61.233.96.233ZM72.358 61.304a2.943 2.943 0 0 1-1.716.523c-.65 0-1.159-.184-1.527-.552-.359-.378-.538-.921-.538-1.629v-4.624h-1.338V53.99h1.338v-1.73l1.338-.16v1.89h1.817l-.145 1.032h-1.672v4.566c0 .397.067.688.203.872.146.175.383.262.713.262.3 0 .64-.102 1.018-.305l.508.887Z" fill="#404040"/></svg>
